X: 97
T: Sihuo buzhong caizhu de di
L: 1/8
M: 2/4
K: Bb
f' d' c'/ d'/ c'/ b/ [I:setbarnb 1]| 
g b d3/ f/ | 
d f b d | 
c4 | 
f' d' c'/ d'/ c'/ b/ | 
g fg2 | 
b g f/ g/ f/ d/ | 
f4 |]

@@@ Tune index: 8971
